img/dev-Icon.svg

<svg width="47" height="47" viewBox="0 0 47 47" fill="none" xmlns="http://www.w3.org/2000/svg">
<path fill-rule="evenodd" clip-rule="evenodd" d="M23.7604 46.5235C36.4062 46.5235 46.6577 36.272 46.6577 23.6262C46.6577 10.9804 36.4062 0.728882 23.7604 0.728882C11.1145 0.728882 0.863068 10.9804 0.863068 23.6262C0.863068 36.272 11.1145 46.5235 23.7604 46.5235Z" fill="#5454D4" fill-opacity="0.1"/>
<path d="M21.4375 24.1792C20.8534 24.4712 20.3667 24.9048 20.0039 25.4446C19.8004 25.7544 19.8004 26.1437 20.0039 26.4534C20.3667 26.9932 20.8534 27.4269 21.4375 27.7189" stroke="#5454D4" stroke-width="1.32738" stroke-linecap="round" stroke-linejoin="round"/>
<path d="M26.9328 24.1792C27.5169 24.4712 28.0036 24.9048 28.3664 25.4446C28.5699 25.7544 28.5699 26.1437 28.3664 26.4534C28.0036 26.9932 27.5169 27.4269 26.9328 27.7189" stroke="#5454D4" stroke-width="1.32738" stroke-linecap="round" stroke-linejoin="round"/>
<path d="M21.4375 32.1435H26.747C31.1716 32.1435 32.9415 30.3736 32.9415 25.949V20.6395C32.9415 16.2149 31.1716 14.4451 26.747 14.4451H21.4375C17.0129 14.4451 15.243 16.2149 15.243 20.6395V25.949C15.243 30.3736 17.0129 32.1435 21.4375 32.1435Z" stroke="#5454D4" stroke-width="1.32738" stroke-linecap="round" stroke-linejoin="round"/>
<path d="M15.4466 19.7635L32.4547 19.7546" stroke="#5454D4" stroke-width="1.32738" stroke-linecap="round" stroke-linejoin="round"/>
</svg>

<svg xmlns="http://www.w3.org/2000/svg" fill="none" viewBox="0 0 47 47"><path fill="#5454D4" fill-opacity=".1" fill-rule="evenodd" d="M23.76 46.523c12.646 0 22.898-10.251 22.898-22.897C46.658 10.98 36.406.73 23.76.73 11.114.729.863 10.98.863 23.626c0 12.646 10.252 22.897 22.897 22.897z" clip-rule="evenodd"/><path stroke="#5454D4" stroke-linecap="round" stroke-linejoin="round" stroke-width="1.327" d="M21.438 24.18a3.73 3.73 0 0 0-1.434 1.265.91.91 0 0 0 0 1.008c.363.54.85.974 1.433 1.266M26.933 24.18a3.73 3.73 0 0 1 1.433 1.265.91.91 0 0 1 0 1.008c-.362.54-.85.974-1.433 1.266"/><path stroke="#5454D4" stroke-linecap="round" stroke-linejoin="round" stroke-width="1.327" d="M21.438 32.144h5.309c4.425 0 6.194-1.77 6.194-6.195v-5.31c0-4.424-1.77-6.194-6.194-6.194h-5.31c-4.424 0-6.194 1.77-6.194 6.195v5.309c0 4.425 1.77 6.195 6.194 6.195zM15.447 19.764l17.008-.01"/></svg>
